!!!OTL: Maria zart
!!!ARE: Europa, Mitteleuropa, Deutschland
!!!SCT: A0596
!!!YEM: Copyright 1995, estate of Helmut Schaffrath.
**kern
*ICvox
*Ivox
*M4/1
*k[f#]
*e:
{0e
1gn
1fn
=1
1e
1fn
1dn
1dn
=2
0cn
1r}
{1gn
=3
1gn
1gn
1a
1gn
=4
0fn
0e}
=5
{0e
1gn
1fn
=6
1e
1fn
1dn
1dn
=7
0cn
1r}
{1gn
=8
1gn
1gn
1a
1gn
=9
0fn
0e}
=10
{1r
1e
1a
1gn
=11
1a
1ccn
2b
2a
1b
=12
0a
1r}
{1gn
=13
1ccn
1a
1b
1ccn
=14
0a
0gn}
=15
{1r
1gn
1e
1fn
=16
1gn
1fn
0e
=17
0dn
1r}
{1gn
=18
1gn
1a
0b
=19
1r
1ddn
1ccn
1b
=20
0a
1r}
{1b
=21
1ccn
1a
0gn
=22
1r
1a
1gn
1fn
=23
0e
1r}
{1e
=24
1dn
1cn
1fn
1e
=25
0dn
0cn}
=26
{1r
1ccn
1a
1b
=27
0ccn
1r
1b
=28
2a
2gn
1a
0gn}
=29
{1r
1a
1e
1dn
=30
1gn
1a
0fn
=31
[0e
0e]}
==
!!!AGN: Romanze, Ballade, Lied, religioeses Lied
!! Leisentrit 1567 II fol. 15.
!!!ONB: ESAC (Essen Associative Code) Database: ALTDEU
!!!AMT: simple quadruple
!!!AIN: vox
!!!EED: Helmut Schaffrath
!!!EEV: 1.0
*-
